actions/22x22-dark/layer-next.svg

<svg viewBox="0 0 22 22" xmlns="http://www.w3.org/2000/svg"><path d="m11 1.7011719-8.4335938 4.2167969 8.4335938 4.2167972 8.433594-4.2167972zm-6.0839844 13.2050781-2.3496094 1.175781 8.4335938 4.216797 8.433594-4.216797-2.34961-1.175781-6.083984 3.042969z" fill="#f2f2f2"/><path d="m10.996094 11.117188c-.176006.000636-.354872.068812-.488282.203124l-2.9980464 3.021485c-.2663262.268259-.2646641.708077.0039063.974609.2686935.266758.709471.265014.9765625-.003906l2.5117186-2.529297 2.529297 2.511719c.268704.266788.70951.26508.976562-.003906.266976-.268652.265226-.709503-.003906-.976563l-3.021484-2.998047c-.133551-.132566-.309688-.199857-.486328-.199218z" fill="#3daee9"/></svg>

<svg xmlns="http://www.w3.org/2000/svg" viewBox="0 0 22 22">
  <defs id="defs3051">
    <style type="text/css" id="current-color-scheme">
      .ColorScheme-Text {
        color:#f2f2f2;
      }
      .ColorScheme-Highlight {
        color:#3daee9;
      }
      </style>
  </defs>
 <path 
     style="fill:currentColor;fill-opacity:1;stroke:none" 
     d="M 11 1.7011719 L 2.5664062 5.9179688 L 11 10.134766 L 19.433594 5.9179688 L 11 1.7011719 z M 4.9160156 14.90625 L 2.5664062 16.082031 L 11 20.298828 L 19.433594 16.082031 L 17.083984 14.90625 L 11 17.949219 L 4.9160156 14.90625 z "
     class="ColorScheme-Text"
     />
 <path 
     style="fill:currentColor;fill-opacity:1;stroke:none" 
     d="M 10.996094 11.117188 C 10.820088 11.117824 10.641222 11.186 10.507812 11.320312 L 7.5097656 14.341797 C 7.2434394 14.610056 7.2451015 15.049874 7.5136719 15.316406 C 7.7823654 15.583164 8.2231429 15.58142 8.4902344 15.3125 L 11.001953 12.783203 L 13.53125 15.294922 C 13.799954 15.56171 14.24076 15.560002 14.507812 15.291016 C 14.774788 15.022364 14.773038 14.581513 14.503906 14.314453 L 11.482422 11.316406 C 11.348871 11.18384 11.172734 11.116549 10.996094 11.117188 z "
     class="ColorScheme-Highlight"
     />
</svg>
